lib/brands/icons/opera.svg

<svg xmlns="http://www.w3.org/2000/svg" fill="none" aria-hidden="true" viewBox="0 0 48 48"><g id="opera-Icon"><g id="opera"><path id="vector" fill="url(#paint0_linear_94_16626)" d="M17.4219 35.2656C15.2031 32.6563 13.7813 28.7969 13.6875 24.4688V23.5312C13.7813 19.2031 15.2188 15.3438 17.4219 12.7344C20.2969 9.01563 24.5156 7.34375 29.2813 7.34375C32.2188 7.34375 34.9844 7.54688 37.3281 9.10938C33.8125 5.9375 29.1719 4.01563 24.0781 4H24C12.9531 4 4 12.9531 4 24C4 34.7187 12.4375 43.4844 23.0469 43.9844C23.3594 44 23.6875 44 24 44C29.125 44 33.7969 42.0781 37.3281 38.9062C34.9844 40.4687 32.375 40.5313 29.4375 40.5313C24.6875 40.5469 20.2813 39 17.4219 35.2656V35.2656Z"/><path id="vector_2" fill="url(#paint1_linear_94_16626)" d="M17.4219 12.7344C19.25 10.5625 21.625 9.26563 24.2187 9.26563C30.0469 9.26563 34.7656 15.8594 34.7656 24.0156C34.7656 32.1719 30.0469 38.7656 24.2187 38.7656C21.625 38.7656 19.2656 37.4531 17.4219 35.2969C20.2969 39.0156 24.5625 41.3906 29.3125 41.3906C32.2344 41.3906 34.9844 40.5 37.3281 38.9375C41.4219 35.25 44 29.9219 44 24C44 18.0781 41.4219 12.75 37.3281 9.09375C34.9844 7.53125 32.25 6.64062 29.3125 6.64062C24.5469 6.64062 20.2812 9 17.4219 12.7344V12.7344Z"/></g></g><defs><linearGradient id="paint0_linear_94_16626" x1="20.6651" x2="20.6651" y1="4.652" y2="43.418" gradientUnits="userSpaceOnUse"><stop offset="0.3" stop-color="#FF1B2D"/><stop offset="0.4381" stop-color="#FA1A2C"/><stop offset="0.5939" stop-color="#ED1528"/><stop offset="0.7581" stop-color="#D60E21"/><stop offset="0.9272" stop-color="#B70519"/><stop offset="1" stop-color="#A70014"/></linearGradient><linearGradient id="paint1_linear_94_16626" x1="30.7083" x2="30.7083" y1="6.93704" y2="41.2235" gradientUnits="userSpaceOnUse"><stop stop-color="#9C0000"/><stop offset="0.7" stop-color="#FF4B4B"/></linearGradient></defs></svg>

<svg xmlns="http://www.w3.org/2000/svg" fill="none" aria-hidden="true" viewBox="0 0 48 48"><path fill="url(#a)" d="M17.422 35.266c-2.219-2.61-3.64-6.47-3.735-10.797v-.938c.094-4.328 1.532-8.187 3.735-10.797 2.875-3.718 7.094-5.39 11.86-5.39 2.937 0 5.702.203 8.046 1.765A19.79 19.79 0 0 0 24.078 4H24C12.953 4 4 12.953 4 24c0 10.719 8.438 19.484 19.047 19.984.312.016.64.016.953.016a19.87 19.87 0 0 0 13.328-5.094c-2.344 1.563-4.953 1.625-7.89 1.625-4.75.016-9.157-1.531-12.016-5.265Z"/><path fill="url(#b)" d="M17.422 12.734c1.828-2.171 4.203-3.468 6.797-3.468 5.828 0 10.547 6.593 10.547 14.75 0 8.156-4.72 14.75-10.547 14.75-2.594 0-4.953-1.313-6.797-3.47 2.875 3.72 7.14 6.095 11.89 6.095 2.922 0 5.672-.891 8.016-2.453C41.422 35.25 44 29.922 44 24c0-5.922-2.578-11.25-6.672-14.906C34.984 7.53 32.25 6.64 29.312 6.64c-4.765 0-9.03 2.359-11.89 6.093Z"/><defs><linearGradient id="a" x1="20.665" x2="20.665" y1="4.652" y2="43.418" gradientUnits="userSpaceOnUse"><stop offset=".3" stop-color="#FF1B2D"/><stop offset=".438" stop-color="#FA1A2C"/><stop offset=".594" stop-color="#ED1528"/><stop offset=".758" stop-color="#D60E21"/><stop offset=".927" stop-color="#B70519"/><stop offset="1" stop-color="#A70014"/></linearGradient><linearGradient id="b" x1="30.708" x2="30.708" y1="6.937" y2="41.224" gradientUnits="userSpaceOnUse"><stop stop-color="#9C0000"/><stop offset=".7" stop-color="#FF4B4B"/></linearGradient></defs></svg>
